X: 19128
T: Irish Washerwoman, The
R: jig
M: 6/8
K: Gmajor
|:E/F/GA|B2 G D2 G|B^AB dcB|c2 A E2 A|cA/B/c edc|
BGG DGG|BG/A/B dcB|c>Bc Adc|BGG:|
|:GB/c/d|gfg GB/c/d|gfg bge|f^ef FAd|fef afd|
egg d2 g|cgg B^AB|cBc Adc|BGG:|

